X: 41443
T: Two For Jo To Go
R: reel
M: 4/4
K: Gmajor
df|:"G"g2dB "C"c2de|"Em"B2dB "D7"A2cB|"G"GBdB "C"cegc|"Em"Bdge "D"d4|
"G"g2dB "C"e2cB|"Am"c2de "D"d2ef|"Em"gedB "C"e2cB|"D"AGAF "G"G2 GA:|
|:"G"B2 Bd"D"A2 BA|"G"GA Bd"D"A2 ef|"Em"gf ed"C"cB AG|"D7"AB cB"D"A2 BA|
"G"G2 Bd"D"e2 ef|"C"gf ed"G"B2 AG|"D"F2 AB"C"c2 BG|"D"A2 dF"G"G2 GA:|

